X:455
T: Miss McLeod's
T: Miss McCloud's
M: C|
L: 1/8
R: Reel
K: G
G2 BG dGBG|B2 BA BcBA|G2 BG dGBG|A2 AG AcBA|
G2 BG dGBG|B2 BA B2 d2|efed Bdef|gedB AcBA :|
G2 gf edeg|B2 BA BcBA|G2 gf edeg|agfe dcBA|
G2 gf edeg|B2 BA B2 d2|efed Bdef|gedB AcBA :|
